X:51
T:Retreat. Ru1.051, The
%%VWML:RutherfordVol1-2248-p26-0p26
Z:Transcription by Village Music Project, Steve Mansfield July 2015
F:http://www.village-music-project.org.uk/
F:http://www.vwml.org/record/RutherfordVol1/2248/p26
Z:vmp.Mike Hicken 2015 www.village-music-project.org.uk
N: * This note was missing in the original. I have added it in line with The Retreat JJo6.16
N: from J.Johnson Choice Collection Vol 6, 1751
M:6/8
Q:3/8=100
K:D
D>EF GAB|AdF E2D|G>FE FAG|ADD D3 :|
|:Bcd Bcd|B>cd F2E|A3/B/A/B/ A3/B/A/B/ |AGF E2D|
D>EF GAB|AdF E2D|GFE FAG|FDD D3 :|
M:C|
Q:1/2=80
"Presto" F2FD G2 GE|F2FD E4|(DE/F/) (G/A/B/c/) d2>B2|A<FG<E D4:|
|:d2 d>A "*"d2 d>A d>ef>F E4|D(E/F/) (G/A/B/c/) d2>B2|A>FG>E D4|]
W:
W: The first Cu. sets to the 2d.
W: Wo. but not turns .|  The same
W: to the Man :|  Gallop down &
W: up again & cast off _
W: Lead Thro' the Bottom cast up & turn your
W: Partner cast up to the Top :||:  Hands across half round .|| And
W: Back again ????? (unreadable after this)
T:Dumb Waiter. Ru1.052
L:1/8
B:RUTHERFORD Complete Collection of 200 Country Dances Vol.1; London: David & John Rutherford 1756.
Z:vmp.Mike Hicken 2015 www.village-music-project.org.uk
M:2/4
Q:1/2=100
K:G
B2 GB|cecA|B2AG|FAc2|B2GB|c2Ac|BGAF|G2G,2 :|
|:B2GB|dgdB|c2Ac|fafd|Bd g2|dBAG|c2ec|B2A2|
B2GB|cecA|B2AG|FAc2|B2GB|c2Ac|BGAF|G2G,2 |]
W:
W: The first Man sets to the 2d. Wo. & turns her .|
W: The first Wo. does the same with the 2d. Man :|
W: Cross over half Figure Lead through the Bot
W: tom & cast off Foot it to your Partner Right
W: Hand and Left
